icons/evolvere-blue-folders-flat-vivid-dark-fallback/apps/64/charmap.svg

<?xml version="1.0" encoding="UTF-8" standalone="no"?>
<!-- Created with Inkscape (http://www.inkscape.org/) -->

<svg
   xmlns:dc="http://purl.org/dc/elements/1.1/"
   xmlns:cc="http://creativecommons.org/ns#"
   xmlns:rdf="http://www.w3.org/1999/02/22-rdf-syntax-ns#"
   xmlns:svg="http://www.w3.org/2000/svg"
   xmlns="http://www.w3.org/2000/svg"
   xmlns:sodipodi="http://sodipodi.sourceforge.net/DTD/sodipodi-0.dtd"
   xmlns:inkscape="http://www.inkscape.org/namespaces/inkscape"
   width="64"
   height="64"
   id="svg13094"
   version="1.1"
   inkscape:version="0.91+devel r"
   sodipodi:docname="charmap.svg">
  <sodipodi:namedview
     id="base"
     pagecolor="#ffffff"
     bordercolor="#666666"
     borderopacity="1.0"
     inkscape:pageopacity="0"
     inkscape:pageshadow="2"
     inkscape:zoom="11.313709"
     inkscape:cx="4.1083511"
     inkscape:cy="30.878891"
     inkscape:document-units="px"
     inkscape:current-layer="svg13094"
     showgrid="false"
     inkscape:snap-bbox="true"
     inkscape:bbox-paths="true"
     inkscape:bbox-nodes="true"
     inkscape:snap-bbox-edge-midpoints="true"
     inkscape:snap-bbox-midpoints="true"
     inkscape:object-paths="true"
     inkscape:snap-intersection-paths="true"
     inkscape:object-nodes="true"
     inkscape:snap-smooth-nodes="true"
     inkscape:snap-midpoints="true"
     inkscape:snap-object-midpoints="true"
     inkscape:snap-center="true"
     showguides="false"
     inkscape:guide-bbox="true"
     inkscape:window-width="1920"
     inkscape:window-height="1023"
     inkscape:window-x="-10"
     inkscape:window-y="35"
     inkscape:window-maximized="1"
     inkscape:snap-global="true"
     fit-margin-top="0"
     fit-margin-left="0"
     fit-margin-right="0"
     fit-margin-bottom="0"
     showborder="true"
     inkscape:showpageshadow="false"
     inkscape:snap-page="true">
    <inkscape:grid
       type="xygrid"
       id="grid3075"
       empspacing="5"
       visible="true"
       enabled="true"
       snapvisiblegridlinesonly="true"
       originx="1.6362304e-08px"
       originy="18px" />
    <sodipodi:guide
       orientation="0,1"
       position="-11,30"
       id="guide9148" />
    <sodipodi:guide
       orientation="1,0"
       position="32,70"
       id="guide9150" />
  </sodipodi:namedview>
  <defs
     id="defs13096" />
  <metadata
     id="metadata13099">
    <rdf:RDF>
      <cc:Work
         rdf:about="">
        <dc:format>image/svg+xml</dc:format>
        <dc:type
           rdf:resource="http://purl.org/dc/dcmitype/StillImage" />
        <dc:title></dc:title>
      </cc:Work>
    </rdf:RDF>
  </metadata>
  <path
     inkscape:connector-curvature="0"
     style="color:#000000;fill:#b0b7c8;fill-opacity:1;fill-rule:nonzero;stroke:none;stroke-width:2.28571415;marker:none;visibility:visible;display:inline;overflow:visible;enable-background:accumulate"
     d="M 1.6362304e-8,1 0,34 0,62 2,64 32,64 62,64 64,62 64,34 64,1 62,0 2,0 z"
     id="path3014"
     sodipodi:nodetypes="cccccccccccc" />
  <path
     id="path6538"
     d="m 7,56 0,-44 2,-2 46,0 2,2 0,44 -2,2 -46,0 z"
     style="color:#000000;fill:#ffffff;fill-opacity:0.10644007;fill-rule:nonzero;stroke:none;stroke-width:2.28571415;marker:none;visibility:visible;display:inline;overflow:visible;enable-background:accumulate"
     inkscape:connector-curvature="0"
     sodipodi:nodetypes="ccccccccc" />
  <g
     id="g3043"
     inkscape:export-filename="folder.png"
     inkscape:export-xdpi="90"
     inkscape:export-ydpi="90"
     transform="translate(-0.62500009,0.082283)" />
  <g
     id="scalable"
     transform="matrix(1.0385892,0,0,1.0385892,1214.7222,1878.8121)"
     inkscape:label="#g3701"
     style="fill:#ffffff" />
  <path
     inkscape:connector-curvature="0"
     id="path3840"
     style="font-size:35.9540863px;font-style:normal;font-variant:normal;font-weight:bold;font-stretch:normal;line-height:125%;letter-spacing:0px;word-spacing:0px;fill:#00122b;fill-opacity:0.63506263;stroke:none;font-family:Oxygen;-inkscape-font-specification:Oxygen Bold"
     d="m 26.592843,25.090479 0,-4.45915 3.423363,0 0,4.45915 -3.423363,0 m 7.390953,0 0,-4.45915 3.440918,0 0,4.45915 -3.440918,0 M 29.840649,47.36867 c -1.790688,-1e-6 -3.241958,-0.49156 -4.353815,-1.474679 -1.10016,-0.994822 -1.650238,-2.422684 -1.650237,-4.283593 -1e-6,-2.001343 0.655411,-3.481873 1.966239,-4.441593 1.310822,-0.971405 3.288763,-1.585855 5.933829,-1.84335 0.362808,-0.0468 0.754885,-0.09362 1.176232,-0.140445 0.421326,-0.0468 0.89533,-0.09362 1.422013,-0.140446 0.526658,-0.0468 0.942143,-0.08777 1.246455,-0.12289 l 0,-1.018231 c -1.3e-5,-1.170366 -0.269201,-2.018891 -0.807563,-2.545577 -0.538387,-0.538359 -1.357652,-0.807546 -2.457799,-0.807563 -1.568318,1.7e-5 -3.505295,0.438909 -5.810938,1.316678 -0.01171,-0.0351 -0.204821,-0.567619 -0.579339,-1.597569 -0.374525,-1.029917 -0.567637,-1.556588 -0.579338,-1.580014 2.270533,-0.971396 4.728329,-1.457103 7.373397,-1.457123 2.598231,2e-5 4.488394,0.567654 5.670493,1.702903 1.182067,1.123582 1.773108,2.949374 1.773126,5.477381 l 0,12.587441 -3.405807,0 c -0.01172,-0.04682 -0.14046,-0.438892 -0.386225,-1.176232 -0.245794,-0.737338 -0.368684,-1.129415 -0.36867,-1.176233 -0.959725,0.936306 -1.90188,1.62683 -2.826469,2.071574 -0.912907,0.43304 -2.024767,0.64956 -3.335584,0.649561 m 1.246455,-3.265362 c 1.065036,3e-6 1.989636,-0.251628 2.773802,-0.754895 0.795846,-0.514963 1.36348,-1.135264 1.702903,-1.860905 l 0,-3.721809 c -0.03512,9e-6 -0.345275,0.02342 -0.930452,0.07022 -0.573498,0.04682 -0.883649,0.07023 -0.930453,0.07022 -1.860914,0.163862 -3.224406,0.514976 -4.090479,1.053343 -0.866088,0.538382 -1.299129,1.404463 -1.299123,2.598244 -6e-6,0.819271 0.239922,1.451276 0.719784,1.896016 0.479849,0.433044 1.164521,0.649564 2.054018,0.649561" />
  <path
     style="color:#000000;fill:#ffffff;fill-opacity:0.78443646;fill-rule:nonzero;stroke:none;marker:none;visibility:visible;display:inline;overflow:visible;enable-background:accumulate"
     d="M 2,0 0,1 7,12 9,10 55,10 57,12 64,1 62,0 z"
     id="path3811"
     inkscape:connector-curvature="0"
     sodipodi:nodetypes="ccccccccc" />
  <path
     sodipodi:nodetypes="ccccc"
     inkscape:connector-curvature="0"
     id="path3025"
     d="M 0,1 1.6362304e-8,62 7,56 7,12 z"
     style="color:#000000;fill:#ffffff;fill-opacity:0.45967743;fill-rule:nonzero;stroke:none;marker:none;visibility:visible;display:inline;overflow:visible;enable-background:accumulate" />
  <path
     sodipodi:nodetypes="ccccc"
     inkscape:connector-curvature="0"
     id="path3819"
     d="m 64,1 0,61 -7,-6 0,-44 z"
     style="color:#000000;fill:#222939;fill-opacity:0.11627907;fill-rule:nonzero;stroke:none;marker:none;visibility:visible;display:inline;overflow:visible;enable-background:accumulate" />
  <path
     sodipodi:nodetypes="ccccccccc"
     inkscape:connector-curvature="0"
     id="path3821"
     d="M 64,62 62,64 2,64 1.6362304e-8,62 7,56 l 2,2 46,0 2,-2 z"
     style="color:#000000;fill:#222939;fill-opacity:0.11627907;fill-rule:nonzero;stroke:none;marker:none;visibility:visible;display:inline;overflow:visible;enable-background:accumulate" />
  <path
     sodipodi:nodetypes="ccccc"
     inkscape:connector-curvature="0"
     id="path3823"
     d="m 64,62 -2,2 -7,-6 2,-2 z"
     style="color:#000000;fill:#222939;fill-opacity:0.12634409;fill-rule:nonzero;stroke:none;marker:none;visibility:visible;display:inline;overflow:visible;enable-background:accumulate" />
  <path
     style="color:#000000;fill:#ffffff;fill-opacity:0.09587814;fill-rule:nonzero;stroke:none;marker:none;visibility:visible;display:inline;overflow:visible;enable-background:accumulate"
     d="M 2,64 1.6362304e-8,62 7,56 9,58 z"
     id="path6688"
     inkscape:connector-curvature="0"
     sodipodi:nodetypes="ccccc" />
  <path
     style="color:#000000;fill:#ffffff;fill-opacity:0.38282648;fill-rule:nonzero;stroke:none;marker:none;visibility:visible;display:inline;overflow:visible;enable-background:accumulate"
     d="M 2,0 0,1 7,12 9,10 z"
     id="path3815"
     inkscape:connector-curvature="0"
     sodipodi:nodetypes="ccccc" />
  <path
     sodipodi:nodetypes="ccccc"
     inkscape:connector-curvature="0"
     id="path3023"
     d="m 62,0 2,1 -7,11 -2,-2 z"
     style="color:#000000;fill:#222939;fill-opacity:0.1254902;fill-rule:nonzero;stroke:none;marker:none;visibility:visible;display:inline;overflow:visible;enable-background:accumulate" />
</svg>

<svg xmlns="http://www.w3.org/2000/svg" viewBox="0 0 64 64"><g color="#000"><path d="m0 1v33 28l2 2h30 30l2-2v-28-33l-2-1h-60z" fill="#b0b7c8"/><path d="m7 56v-44l2-2h46l2 2v44l-2 2h-46z" fill="#fff" fill-opacity=".106"/></g><path d="m26.593 25.09v-4.459h3.423v4.459h-3.423m7.391 0v-4.459h3.441v4.459h-3.441m-4.143 22.278c-1.791 0-3.242-.492-4.354-1.475-1.1-.995-1.65-2.423-1.65-4.284 0-2 .655-3.482 1.966-4.442 1.311-.971 3.289-1.586 5.934-1.843.363-.047.755-.094 1.176-.14.421-.047.895-.094 1.422-.14.527-.047.942-.088 1.246-.123v-1.018c0-1.17-.269-2.02-.808-2.546-.538-.538-1.358-.808-2.458-.808-1.568 0-3.505.439-5.811 1.317-.012-.035-.205-.568-.579-1.598-.375-1.03-.568-1.557-.579-1.58 2.271-.971 4.728-1.457 7.373-1.457 2.598 0 4.488.568 5.67 1.703 1.182 1.124 1.773 2.949 1.773 5.477v12.587h-3.406c-.012-.047-.14-.439-.386-1.176-.246-.737-.369-1.129-.369-1.176-.96.936-1.902 1.627-2.826 2.072-.913.433-2.025.65-3.336.65m1.246-3.265c1.065 0 1.99-.252 2.774-.755.796-.515 1.363-1.135 1.703-1.861v-3.722c-.035 0-.345.023-.93.07-.573.047-.884.07-.93.07-1.861.164-3.224.515-4.09 1.053-.866.538-1.299 1.404-1.299 2.598 0 .819.24 1.451.72 1.896.48.433 1.165.65 2.054.65" fill="#00122b" fill-opacity=".635"/><g color="#000"><g fill="#fff"><path d="m2 0l-2 1 7 11 2-2h46l2 2 7-11-2-1z" fill-opacity=".784"/><path d="m0 1v61l7-6v-44z" fill-opacity=".46"/></g><g fill="#222939"><g fill-opacity=".116"><path d="m64 1v61l-7-6v-44z"/><path d="m64 62l-2 2h-60l-2-2 7-6 2 2h46l2-2z"/></g><path d="m64 62l-2 2-7-6 2-2z" fill-opacity=".126"/></g><g fill="#fff"><path d="m2 64l-2-2 7-6 2 2z" fill-opacity=".096"/><path d="m2 0l-2 1 7 11 2-2z" fill-opacity=".383"/></g><path d="m62 0l2 1-7 11-2-2z" fill="#222939" fill-opacity=".125"/></g></svg>
